img/icons/navigation/menu-dots.svg

<svg viewBox="0 0 16 16" xmlns="http://www.w3.org/2000/svg"><path d="m7 4c0-0.139 0-0.209 0.00815-0.267 0.0525-0.376 0.348-0.672 0.724-0.724 0.0584-0.00816 0.128-0.00816 0.267-0.00816s0.209 0 0.267 0.00816c0.376 0.0525 0.672 0.348 0.724 0.724 0.00815 0.0584 0.00815 0.128 0.00815 0.267 0 0.139 0 0.209-0.00815 0.267-0.0525 0.376-0.348 0.672-0.724 0.724-0.0584 0.00815-0.128 0.00815-0.267 0.00815s-0.209 0-0.267-0.00815c-0.376-0.0525-0.672-0.348-0.724-0.724-0.00815-0.0584-0.00815-0.128-0.00815-0.267z" fill="#000"/><path d="m7 8c0-0.139 0-0.209 0.00815-0.267 0.0525-0.376 0.348-0.672 0.724-0.724 0.0584-0.00816 0.128-0.00816 0.267-0.00816s0.209 0 0.267 0.00816c0.376 0.0525 0.672 0.348 0.724 0.724 0.00815 0.0584 0.00815 0.128 0.00815 0.267 0 0.139 0 0.209-0.00815 0.267-0.0525 0.376-0.348 0.672-0.724 0.724-0.0584 0.00815-0.128 0.00815-0.267 0.00815s-0.209 0-0.267-0.00815c-0.376-0.0525-0.672-0.348-0.724-0.724-0.00815-0.0584-0.00815-0.128-0.00815-0.267z" fill="#000"/><path d="m7 12c0-0.139 0-0.209 0.00815-0.267 0.0525-0.376 0.348-0.672 0.724-0.724 0.0584-0.0082 0.128-0.0082 0.267-0.0082s0.209 0 0.267 0.0082c0.376 0.0525 0.672 0.348 0.724 0.724 0.00815 0.0584 0.00815 0.128 0.00815 0.267 0 0.139 0 0.209-0.00815 0.268-0.0525 0.376-0.348 0.672-0.724 0.724-0.0584 0.0081-0.128 0.0081-0.267 0.0081s-0.209 0-0.267-0.0081c-0.376-0.0525-0.672-0.348-0.724-0.724-0.00815-0.0585-0.00815-0.128-0.00815-0.268z" fill="#000"/></svg>

<svg xmlns="http://www.w3.org/2000/svg" viewBox="0 0 16 16" fill="none">
  <path fill="#000"
    d="M7 4c0-.139 0-.209.008-.267a.85.85 0 0 1 .725-.725C7.79 3 7.86 3 8 3s.209 0 .267.008a.85.85 0 0 1 .725.725C9 3.79 9 3.86 9 4s0 .21-.008.268a.85.85 0 0 1-.725.724C8.21 5 8.14 5 8 5s-.209 0-.267-.008a.85.85 0 0 1-.725-.724C7 4.209 7 4.14 7 4Zm0 4c0-.139 0-.209.008-.267a.85.85 0 0 1 .725-.725C7.79 7 7.86 7 8 7s.209 0 .267.008a.85.85 0 0 1 .725.725C9 7.79 9 7.86 9 8s0 .21-.008.268a.85.85 0 0 1-.725.724C8.21 9 8.14 9 8 9s-.209 0-.267-.008a.85.85 0 0 1-.725-.724C7 8.209 7 8.14 7 8Zm0 4c0-.139 0-.209.008-.267a.85.85 0 0 1 .725-.725C7.79 11 7.86 11 8 11s.209 0 .267.008a.85.85 0 0 1 .725.725C9 11.79 9 11.86 9 12s0 .21-.008.268a.85.85 0 0 1-.725.724C8.21 13 8.14 13 8 13s-.209 0-.267-.008a.85.85 0 0 1-.725-.724C7 12.209 7 12.14 7 12Z" />
</svg>
